COLOR/action 16/16/align-horizontal-bottom-out.svg

<svg viewBox="0 0 24 24" xmlns="http://www.w3.org/2000/svg"><path d="m4 4v1 6h6v-1-6h-1zm10 1v6h5 1v-1-4-1h-1-4z" fill="#c43ac4"/><path d="m14 16v1 3h6v-1-3h-1z" fill="#1a7fd4"/><path d="m4 13v1h16v-1z" fill="#e95420"/><path d="m4 10.5v.5h6v-.5zm10 0v.5h5 1v-.5h-1zm-10 3v.5h16v-.5zm10 6v.5h6v-.5z" opacity=".2"/><path d="m4 4v.5h5 1v-.5h-1zm10 1v.5h1 4 1v-.5h-1-4zm-10 8v.5h16v-.5zm10 3v.5h5 1v-.5h-1z" fill="#fff" opacity=".3"/></svg>

<?xml version="1.0" encoding="UTF-8" standalone="no"?>
<svg
   xmlns:dc="http://purl.org/dc/elements/1.1/"
   xmlns:cc="http://creativecommons.org/ns#"
   xmlns:rdf="http://www.w3.org/1999/02/22-rdf-syntax-ns#"
   xmlns:svg="http://www.w3.org/2000/svg"
   xmlns="http://www.w3.org/2000/svg"
   xmlns:sodipodi="http://sodipodi.sourceforge.net/DTD/sodipodi-0.dtd"
   xmlns:inkscape="http://www.inkscape.org/namespaces/inkscape"
   viewBox="0 0 24 24"
   version="1.1"
   id="svg8"
   sodipodi:docname="align-horizontal-bottom-out.svg"
   inkscape:version="0.92.4 (5da689c313, 2019-01-14)">
  <metadata
     id="metadata14">
    <rdf:RDF>
      <cc:Work
         rdf:about="">
        <dc:format>image/svg+xml</dc:format>
        <dc:type
           rdf:resource="http://purl.org/dc/dcmitype/StillImage" />
      </cc:Work>
    </rdf:RDF>
  </metadata>
  <defs
     id="defs12" />
  <sodipodi:namedview
     pagecolor="#ffffff"
     bordercolor="#666666"
     borderopacity="1"
     objecttolerance="10"
     gridtolerance="10"
     guidetolerance="10"
     inkscape:pageopacity="0"
     inkscape:pageshadow="2"
     inkscape:window-width="1920"
     inkscape:window-height="1016"
     id="namedview10"
     showgrid="false"
     inkscape:zoom="9.8333333"
     inkscape:cx="12.101695"
     inkscape:cy="12"
     inkscape:window-x="0"
     inkscape:window-y="27"
     inkscape:window-maximized="1"
     inkscape:current-layer="svg8" />
  <path
     d="m4 4v1 6h6v-1-6h-1zm10 1v6h5 1v-1-4-1h-1-4z"
     fill="#c43ac4"
     id="path2" />
  <path
     d="m14 16v1 3h6v-1-3h-1z"
     fill="#1a7fd4"
     id="path4" />
  <path
     d="m4 13v1h16v-1z"
     fill="#e95420"
     id="path6" />
  <path
     d="M 4 10.5 L 4 11 L 10 11 L 10 10.5 L 4 10.5 z M 14 10.5 L 14 11 L 19 11 L 20 11 L 20 10.5 L 19 10.5 L 14 10.5 z M 4 13.5 L 4 14 L 20 14 L 20 13.5 L 4 13.5 z M 14 19.5 L 14 20 L 20 20 L 20 19.5 L 14 19.5 z "
     id="path821"
     style="fill:#000000;fill-opacity:1;opacity:0.2" />
  <path
     d="M 4 4 L 4 4.5 L 9 4.5 L 10 4.5 L 10 4 L 9 4 L 4 4 z M 14 5 L 14 5.5 L 15 5.5 L 19 5.5 L 20 5.5 L 20 5 L 19 5 L 15 5 L 14 5 z M 4 13 L 4 13.5 L 20 13.5 L 20 13 L 4 13 z M 14 16 L 14 16.5 L 19 16.5 L 20 16.5 L 20 16 L 19 16 L 14 16 z "
     id="path828"
     style="fill:#ffffff;fill-opacity:1;opacity:0.3" />
</svg>
